static/assets/images/icons/card-view.svg

<svg width="256" height="256" viewBox="0 0 256 256" fill="none" xmlns="http://www.w3.org/2000/svg">
<path d="M23 74.9877C23 67.2625 29.1602 61 36.7592 61H108.083C115.682 61 121.843 67.2625 121.843 74.9877V108.28C121.843 116.005 115.682 122.267 108.083 122.267H36.7592C29.1602 122.267 23 116.005 23 108.28V74.9877Z" fill="black"/>
<path d="M23 148.844C23 141.119 29.1602 134.856 36.7592 134.856H108.083C115.682 134.856 121.843 141.119 121.843 148.844V180.649C121.843 188.374 115.682 194.636 108.083 194.636H36.7592C29.1602 194.636 23 188.374 23 180.649V148.844Z" fill="black"/>
<path d="M134.157 74.9877C134.157 67.2625 140.318 61 147.917 61H219.241C226.84 61 233 67.2625 233 74.9877V108.28C233 116.005 226.84 122.267 219.241 122.267H147.917C140.318 122.267 134.157 116.005 134.157 108.28V74.9877Z" fill="black"/>
<path d="M134.157 148.844C134.157 141.119 140.318 134.856 147.917 134.856H219.241C226.84 134.856 233 141.119 233 148.844V180.649C233 188.374 226.84 194.636 219.241 194.636H147.917C140.318 194.636 134.157 188.374 134.157 180.649V148.844Z" fill="black"/>
</svg>

<svg xmlns="http://www.w3.org/2000/svg" fill="none" viewBox="0 0 256 256"><path fill="#000" d="M23 74.988C23 67.263 29.16 61 36.76 61h71.323c7.599 0 13.76 6.263 13.76 13.988v33.292c0 7.725-6.161 13.987-13.76 13.987H36.759C29.16 122.267 23 116.005 23 108.28zm0 73.856c0-7.725 6.16-13.988 13.76-13.988h71.323c7.599 0 13.76 6.263 13.76 13.988v31.805c0 7.725-6.161 13.987-13.76 13.987H36.759c-7.599 0-13.759-6.262-13.759-13.987zm111.157-73.856c0-7.725 6.161-13.988 13.76-13.988h71.324C226.84 61 233 67.263 233 74.988v33.292c0 7.725-6.16 13.987-13.759 13.987h-71.324c-7.599 0-13.76-6.262-13.76-13.987zm0 73.856c0-7.725 6.161-13.988 13.76-13.988h71.324c7.599 0 13.759 6.263 13.759 13.988v31.805c0 7.725-6.16 13.987-13.759 13.987h-71.324c-7.599 0-13.76-6.262-13.76-13.987z"/></svg>
